X: 58
T:Cuckoo's Nest (Welsh - Nyth y Gwew)
T:Nyth y Gwew
M:4/4
L:1/4
R:reel
K:Dm
"Dmin"D/2|F/2E/2F/2E/2 Dd|AA AG|F/2E/2F/2E/2 D A/2B/2|"C"cc cE|!
"Dmin" F/2E/2F/2E/2 Dd|AA AG|F/2E/2F/2E/2 D/2E/2F/2G/2|"A7"AA d2:|!
"Dmin"d/2e/2f/2e/2 dd|"Am"c/2B/2A/2G/2 AA|d/2e/2f/2g/2 aa|"G"gd d>e|!
"Dmin"f/2e/2f/2/e/2 dd|"Am"c/2B/2A/2G/2 A>G|"Dmin"F/2E/2F/2E/2 D/2E/2F/2G/2|"A7"AA d2:|!

